assets/icons/fav.svg

<?xml version="1.0" encoding="UTF-8" standalone="no"?><!DOCTYPE svg PUBLIC "-//W3C//DTD SVG 1.1//EN" "http://www.w3.org/Graphics/SVG/1.1/DTD/svg11.dtd"><svg width="100%" height="100%" viewBox="0 0 48 48" version="1.1" xmlns="http://www.w3.org/2000/svg" xmlns:xlink="http://www.w3.org/1999/xlink" xml:space="preserve" xmlns:serif="http://www.serif.com/" style="fill-rule:evenodd;clip-rule:evenodd;stroke-linejoin:round;stroke-miterlimit:2;"><path d="M21.95,40.2l-2.65,-2.45c-4.133,-3.833 -7.717,-7.492 -10.75,-10.975c-3.033,-3.483 -4.55,-7.125 -4.55,-10.925c-0,-3 1.008,-5.508 3.025,-7.525c2.017,-2.017 4.508,-3.025 7.475,-3.025c1.7,0 3.383,0.408 5.05,1.225c1.667,0.817 3.15,2.158 4.45,4.025c1.467,-1.867 2.983,-3.208 4.55,-4.025c1.567,-0.817 3.217,-1.225 4.95,-1.225c2.967,0 5.458,1.008 7.475,3.025c2.017,2.017 3.025,4.525 3.025,7.525c0,3.8 -1.517,7.442 -4.55,10.925c-3.033,3.483 -6.617,7.142 -10.75,10.975l-2.65,2.45c-0.567,0.533 -1.25,0.8 -2.05,0.8c-0.8,0 -1.483,-0.267 -2.05,-0.8Zm0.75,-26.35c-0.9,-1.633 -2.083,-2.967 -3.55,-4c-1.467,-1.033 -3.017,-1.55 -4.65,-1.55c-2.2,0 -4,0.708 -5.4,2.125c-1.4,1.417 -2.1,3.225 -2.1,5.425c-0,1.933 0.65,3.958 1.95,6.075c1.3,2.117 2.85,4.175 4.65,6.175c1.8,2 3.667,3.858 5.6,5.575c1.933,1.717 3.533,3.158 4.8,4.325c1.267,-1.133 2.867,-2.567 4.8,-4.3c1.933,-1.733 3.8,-3.608 5.6,-5.625c1.8,-2.017 3.35,-4.083 4.65,-6.2c1.3,-2.117 1.95,-4.125 1.95,-6.025c-0,-2.2 -0.708,-4.008 -2.125,-5.425c-1.417,-1.417 -3.208,-2.125 -5.375,-2.125c-1.667,-0 -3.225,0.508 -4.675,1.525c-1.45,1.017 -2.658,2.358 -3.625,4.025c-0.167,0.267 -0.35,0.458 -0.55,0.575c-0.2,0.117 -0.433,0.175 -0.7,0.175c-0.267,-0 -0.508,-0.058 -0.725,-0.175c-0.217,-0.117 -0.392,-0.308 -0.525,-0.575Z" style="fill:#f20d0d;fill-rule:nonzero;"/></svg>

<svg xmlns="http://www.w3.org/2000/svg" height="48" width="48"><path d="m21.95 40.2-2.65-2.45Q13.1 32 8.55 26.775T4 15.85q0-4.5 3.025-7.525Q10.05 5.3 14.5 5.3q2.55 0 5.05 1.225T24 10.55q2.2-2.8 4.55-4.025Q30.9 5.3 33.5 5.3q4.45 0 7.475 3.025Q44 11.35 44 15.85q0 5.7-4.55 10.925Q34.9 32 28.7 37.75l-2.65 2.45q-.85.8-2.05.8-1.2 0-2.05-.8Zm.75-26.35q-1.35-2.45-3.55-4-2.2-1.55-4.65-1.55-3.3 0-5.4 2.125Q7 12.55 7 15.85q0 2.9 1.95 6.075Q10.9 25.1 13.6 28.1t5.6 5.575Q22.1 36.25 24 38q1.9-1.7 4.8-4.3 2.9-2.6 5.6-5.625 2.7-3.025 4.65-6.2Q41 18.7 41 15.85q0-3.3-2.125-5.425T33.5 8.3q-2.5 0-4.675 1.525T25.2 13.85q-.25.4-.55.575-.3.175-.7.175-.4 0-.725-.175-.325-.175-.525-.575Zm1.3 9.3Z"/></svg>
